apps/32/utilities-terminal.svg

<?xml version="1.0" encoding="UTF-8" standalone="no"?>
<svg
   xmlns:dc="http://purl.org/dc/elements/1.1/"
   xmlns:cc="http://creativecommons.org/ns#"
   xmlns:rdf="http://www.w3.org/1999/02/22-rdf-syntax-ns#"
   xmlns:svg="http://www.w3.org/2000/svg"
   xmlns="http://www.w3.org/2000/svg"
   xmlns:xlink="http://www.w3.org/1999/xlink"
   xmlns:sodipodi="http://sodipodi.sourceforge.net/DTD/sodipodi-0.dtd"
   xmlns:inkscape="http://www.inkscape.org/namespaces/inkscape"
   version="1.1"
   width="32"
   height="32"
   id="svg4151"
   inkscape:version="0.91 r13725"
   sodipodi:docname="utilities-terminal.svg">
  <sodipodi:namedview
     pagecolor="#ffffff"
     bordercolor="#666666"
     borderopacity="1"
     objecttolerance="10"
     gridtolerance="10"
     guidetolerance="10"
     inkscape:pageopacity="0"
     inkscape:pageshadow="2"
     inkscape:window-width="1366"
     inkscape:window-height="712"
     id="namedview46"
     showgrid="false"
     inkscape:zoom="1"
     inkscape:cx="-9.8983051"
     inkscape:cy="16"
     inkscape:window-x="0"
     inkscape:window-y="30"
     inkscape:window-maximized="1"
     inkscape:current-layer="svg4151" />
  <defs
     id="defs4153">
    <linearGradient
       x1="20"
       y1="26.000008"
       x2="20"
       y2="13.000008"
       id="linearGradient4045"
       xlink:href="#linearGradient3680-6-6-6-3-7-4"
       gradientUnits="userSpaceOnUse"
       gradientTransform="matrix(0.66257291,0,0,0.66257291,-0.4476025,-0.6233914)" />
    <linearGradient
       id="linearGradient3680-6-6-6-3-7-4">
      <stop
         id="stop3682-4-6-1-3-7-5"
         style="stop-color:#dcdcdc;stop-opacity:1"
         offset="0" />
      <stop
         id="stop3684-8-5-8-0-2-3"
         style="stop-color:#ffffff;stop-opacity:1"
         offset="1" />
    </linearGradient>
    <linearGradient
       x1="23.99999"
       y1="4.999989"
       x2="23.99999"
       y2="43"
       id="linearGradient3174"
       xlink:href="#linearGradient3924-0"
       gradientUnits="userSpaceOnUse"
       gradientTransform="matrix(0.67567568,0,0,0.67567568,-0.21621703,-0.21620627)" />
    <linearGradient
       id="linearGradient3924-0">
      <stop
         id="stop3926-6"
         style="stop-color:#ffffff;stop-opacity:1"
         offset="0" />
      <stop
         id="stop3928-3"
         style="stop-color:#ffffff;stop-opacity:0.23529412"
         offset="0.06316455" />
      <stop
         id="stop3930-2"
         style="stop-color:#ffffff;stop-opacity:0.15686275"
         offset="0.95056331" />
      <stop
         id="stop3932-62"
         style="stop-color:#ffffff;stop-opacity:0.39215687"
         offset="1" />
    </linearGradient>
    <radialGradient
       cx="7.1183534"
       cy="9.9571075"
       r="12.671875"
       fx="7.1183534"
       fy="9.9571075"
       id="radialGradient4019"
       xlink:href="#linearGradient2867-449-88-871-390-598-476-591-434-148-57-177-8-3-3-6-4-8-8-8-5"
       gradientUnits="userSpaceOnUse"
       gradientTransform="matrix(0,6.3278618,-7.768593,0,93.928071,-55.229829)" />
    <linearGradient
       id="linearGradient2867-449-88-871-390-598-476-591-434-148-57-177-8-3-3-6-4-8-8-8-5">
      <stop
         id="stop3750-1-0-7-6-6-1-3-9-3"
         style="stop-color:#505050;stop-opacity:1"
         offset="0" />
      <stop
         id="stop3752-3-7-4-0-32-8-923-0-7"
         style="stop-color:#2b2b2b;stop-opacity:1"
         offset="0.26238" />
      <stop
         id="stop3754-1-8-5-2-7-6-7-1-9"
         style="stop-color:#0a0a0a;stop-opacity:1"
         offset="0.704952" />
      <stop
         id="stop3756-1-6-2-6-6-1-96-6-0"
         style="stop-color:#000000;stop-opacity:1"
         offset="1" />
    </linearGradient>
    <radialGradient
       cx="4.9929786"
       cy="43.5"
       r="2.5"
       fx="4.9929786"
       fy="43.5"
       id="radialGradient2976"
       xlink:href="#linearGradient3688-166-749-6"
       gradientUnits="userSpaceOnUse"
       gradientTransform="matrix(2.003784,0,0,1.4,27.98813,-17.4)" />
    <linearGradient
       id="linearGradient3688-166-749-6">
      <stop
         id="stop2883-8"
         style="stop-color:#181818;stop-opacity:1"
         offset="0" />
      <stop
         id="stop2885-3"
         style="stop-color:#181818;stop-opacity:0"
         offset="1" />
    </linearGradient>
    <radialGradient
       cx="4.9929786"
       cy="43.5"
       r="2.5"
       fx="4.9929786"
       fy="43.5"
       id="radialGradient2978"
       xlink:href="#linearGradient3688-464-309-7"
       gradientUnits="userSpaceOnUse"
       gradientTransform="matrix(2.003784,0,0,1.4,-20.01187,-104.4)" />
    <linearGradient
       id="linearGradient3688-464-309-7">
      <stop
         id="stop2889-0"
         style="stop-color:#181818;stop-opacity:1"
         offset="0" />
      <stop
         id="stop2891-66"
         style="stop-color:#181818;stop-opacity:0"
         offset="1" />
    </linearGradient>
    <linearGradient
       x1="25.058096"
       y1="47.027729"
       x2="25.058096"
       y2="39.999443"
       id="linearGradient2980"
       xlink:href="#linearGradient3702-501-757-3"
       gradientUnits="userSpaceOnUse" />
    <linearGradient
       id="linearGradient3702-501-757-3">
      <stop
         id="stop2895-3"
         style="stop-color:#181818;stop-opacity:0"
         offset="0" />
      <stop
         id="stop2897-28"
         style="stop-color:#181818;stop-opacity:1"
         offset="0.5" />
      <stop
         id="stop2899-8"
         style="stop-color:#181818;stop-opacity:0"
         offset="1" />
    </linearGradient>
  </defs>
  <metadata
     id="metadata4156">
    <rdf:RDF>
      <cc:Work
         rdf:about="">
        <dc:format>image/svg+xml</dc:format>
        <dc:type
           rdf:resource="http://purl.org/dc/dcmitype/StillImage" />
        <dc:title />
      </cc:Work>
    </rdf:RDF>
  </metadata>
  <g
     style="display:inline"
     id="g2036-2"
     transform="matrix(0.6999997,0,0,0.3333336,-0.8000002,15.33333)">
    <g
       style="opacity:0.4"
       id="g3712-3"
       transform="matrix(1.052632,0,0,1.285713,-1.263158,-13.42854)">
      <rect
         style="fill:url(#radialGradient2976);fill-opacity:1;stroke:none"
         id="rect2801-0"
         y="40"
         x="38"
         height="7"
         width="5" />
      <rect
         style="fill:url(#radialGradient2978);fill-opacity:1;stroke:none"
         id="rect3696-2"
         transform="scale(-1,-1)"
         y="-47"
         x="-10"
         height="7"
         width="5" />
      <rect
         style="fill:url(#linearGradient2980);fill-opacity:1;stroke:none"
         id="rect3700-1"
         y="40"
         x="10"
         height="7.0000005"
         width="28" />
    </g>
  </g>
  <rect
     style="color:#000000;display:inline;overflow:visible;visibility:visible;opacity:0.9;fill:url(#radialGradient4019);fill-opacity:1;fill-rule:nonzero;stroke:none;stroke-width:0.99999994;marker:none;enable-background:accumulate"
     id="rect5505-21"
     y="2.5"
     x="2.5000002"
     ry="2.1599998"
     rx="2.1599998"
     height="27"
     width="27" />
  <rect
     style="opacity:0.3;fill:none;stroke:url(#linearGradient3174);stroke-width:1;stroke-linecap:round;stroke-linejoin:round;stroke-miterlimit:4;stroke-dasharray:none;stroke-dashoffset:0;stroke-opacity:1"
     id="rect6741-7-4"
     y="3.4999998"
     x="3.5"
     ry="1.0869565"
     rx="1.0869565"
     height="25"
     width="25" />
  <rect
     style="color:#000000;display:inline;overflow:visible;visibility:visible;opacity:0.7;fill:none;stroke:#000000;stroke-width:1;stroke-linecap:round;stroke-linejoin:round;stroke-miterlimit:4;stroke-dasharray:none;stroke-dashoffset:0;stroke-opacity:1;marker:none;enable-background:accumulate"
     id="rect5505-6"
     y="2.5"
     x="2.5"
     ry="2.1600001"
     rx="2.1600001"
     height="27"
     width="27" />
  <path
     inkscape:connector-curvature="0"
     style="color:#000000;font-style:normal;font-variant:normal;font-weight:bold;font-stretch:normal;font-size:14.31169891px;line-height:125%;font-family:'Open Sans';-inkscape-font-specification:'Open Sans Bold';letter-spacing:0px;word-spacing:0px;display:inline;overflow:visible;visibility:visible;opacity:0.15;fill:#000000;fill-opacity:1;fill-rule:nonzero;stroke:none;marker:none;enable-background:accumulate"
     id="path4099"
     d="M 7.8125,7.03125 A 0.9838235,0.9838235 0 0 0 7.03125,8 l 0,0.40625 c -0.3265359,0.129816 -0.6947074,0.152955 -0.96875,0.375 -0.0081,0.0063 0.00798,0.02492 0,0.03125 -0.0043,0.0034 -0.026985,-0.0034 -0.03125,0 C 4.9808162,9.657723 4.9373491,11.142798 5.6875,12.125 a 0.9838235,0.9838235 0 0 0 0.03125,0.03125 c 0.1363371,0.165421 0.3182455,0.18217 0.46875,0.3125 A 0.9838235,0.9838235 0 0 0 5.21875,13.4375 l 0,1.15625 A 0.9838235,0.9838235 0 0 0 5.8125,15.5 c 0.3955437,0.16784 0.8124638,0.167873 1.21875,0.25 l 0,0.25 A 0.9838235,0.9838235 0 0 0 8,16.96875 l 1,0 A 0.9838235,0.9838235 0 0 0 9.96875,16 l 0,-0.3125 c 0.170565,-0.06558 0.376877,-0.07493 0.53125,-0.15625 0.01331,-0.0065 0.01804,-0.0245 0.03125,-0.03125 0.800432,-0.409178 1.40175,-1.190486 1.375,-2.1875 8.5e-5,-0.01055 5.5e-5,-0.02072 0,-0.03125 C 11.90375,12.797757 11.781443,12.361339 11.5,11.96875 A 0.9838235,0.9838235 0 0 0 11.46875,11.9375 c -0.206033,-0.274932 -0.44804,-0.417802 -0.6875,-0.59375 A 0.9838235,0.9838235 0 0 0 11.25,10.875 L 11.71875,9.8125 A 0.9838235,0.9838235 0 0 0 11.1875,8.5 C 10.803237,8.335381 10.375324,8.309171 9.96875,8.21875 L 9.96875,8 A 0.9838235,0.9838235 0 0 0 9,7.03125 l -1,0 a 0.9838235,0.9838235 0 0 0 -0.1875,0 z m 0.59375,3.28125 c -0.027338,-0.01202 0.029792,0.03345 0.09375,0.125 0.054364,0.07782 0.058362,0.132459 0.0625,0.15625 -0.0039,0.03369 -0.02368,0.218721 -0.1875,0.375 -0.1749123,0.166861 -0.290096,0.160766 -0.25,0.15625 L 8.09375,10.96875 8.40625,10.3125 Z M 8.875,12.90625 8.875,13 8.59375,13.625 C 8.5390415,13.545436 8.500466,13.432545 8.5,13.40625 c -7.106e-4,-0.01605 0.041869,-0.23721 0.1875,-0.375 0.1456306,-0.13779 0.2320628,-0.130938 0.1875,-0.125 z m 2.9375,2.125 A 0.9838235,0.9838235 0 0 0 11.03125,16 l 0,1 A 0.9838235,0.9838235 0 0 0 12,17.96875 l 5,0 A 0.9838235,0.9838235 0 0 0 17.96875,17 l 0,-1 A 0.9838235,0.9838235 0 0 0 17,15.03125 l -5,0 a 0.9838235,0.9838235 0 0 0 -0.1875,0 z" />
  <path
     inkscape:connector-curvature="0"
     style="color:#000000;font-style:normal;font-variant:normal;font-weight:bold;font-stretch:normal;font-size:14.31169891px;line-height:125%;font-family:'Open Sans';-inkscape-font-specification:'Open Sans Bold';letter-spacing:0px;word-spacing:0px;display:inline;overflow:visible;visibility:visible;opacity:0.3;fill:#000000;fill-opacity:1;fill-rule:nonzero;stroke:none;marker:none;enable-background:accumulate"
     id="path3987"
     d="M 8,8 8,9 C 7.4562261,9.05195 7.0786084,9.211821 6.65625,9.5625 c -0.6061958,0.468511 -0.6328903,1.385583 -0.1875,1.96875 0.4306521,0.522519 0.906231,0.763943 1.53125,1 l 0,1.40625 c -0.6969048,-0.05693 -1.1792473,-0.214275 -1.8125,-0.5 l 0,1.15625 C 6.8213367,14.862705 7.3109713,14.986524 8,15 l 0,1 1,0 0,-1 c 0.421767,-0.0379 0.68905,-0.144588 1.0625,-0.34375 0.518796,-0.254704 0.898071,-0.779934 0.875,-1.34375 0.0022,-0.272599 -0.08809,-0.555399 -0.25,-0.78125 C 10.254376,11.953286 9.653468,11.732207 9,11.46875 l 0,-1.375 c 0.518112,0.04214 0.863072,0.184415 1.34375,0.375 L 10.8125,9.40625 C 10.198704,9.143298 9.669177,8.996247 9,8.96875 L 9,8 8,8 Z m 0,2.15625 0,1.0625 C 7.7362021,11.102729 7.5817507,10.92513 7.59375,10.59375 7.5814086,10.280944 7.7329473,10.186331 8,10.15625 Z m 1,2.625 C 9.261628,12.908927 9.462854,13.042277 9.46875,13.375 9.48378,13.714519 9.296181,13.835531 9,13.875 L 9,12.78125 Z M 12,16 l 0,1 5,0 0,-1 -5,0 z" />
  <path
     inkscape:connector-curvature="0"
     style="color:#000000;font-style:normal;font-variant:normal;font-weight:bold;font-stretch:normal;font-size:14.31169891px;line-height:125%;font-family:'Open Sans';-inkscape-font-specification:'Open Sans Bold';letter-spacing:0px;word-spacing:0px;display:inline;overflow:visible;visibility:visible;fill:url(#linearGradient4045);fill-opacity:1;fill-rule:nonzero;stroke:none;marker:none;enable-background:accumulate"
     id="path3987-0"
     d="M 8,7 8,8 C 7.4562261,8.05195 7.0786084,8.211821 6.65625,8.5625 6.0500542,9.031011 6.0233597,9.948083 6.46875,10.53125 c 0.4306521,0.522519 0.906231,0.763943 1.53125,1 l 0,1.40625 c -0.6969048,-0.05693 -1.1792473,-0.214275 -1.8125,-0.5 l 0,1.15625 C 6.8213367,13.862705 7.3109713,13.986524 8,14 l 0,1 1,0 0,-1 c 0.421767,-0.0379 0.68905,-0.144588 1.0625,-0.34375 0.518796,-0.254704 0.898071,-0.779934 0.875,-1.34375 0.0022,-0.272599 -0.08809,-0.555399 -0.25,-0.78125 C 10.254376,10.953286 9.653468,10.732207 9,10.46875 l 0,-1.375 c 0.518112,0.04214 0.863072,0.184415 1.34375,0.375 L 10.8125,8.40625 C 10.198704,8.143298 9.669177,7.9962469 9,7.96875 L 9,7 8,7 Z m 0,2.15625 0,1.0625 C 7.7362021,10.102729 7.5817507,9.92513 7.59375,9.59375 7.5814086,9.280944 7.7329473,9.186331 8,9.15625 Z m 1,2.625 C 9.261628,11.908927 9.462854,12.042277 9.46875,12.375 9.48378,12.714519 9.296181,12.835531 9,12.875 L 9,11.78125 Z M 12,15 l 0,1 5,0 0,-1 -5,0 z" />
</svg>

<svg xmlns="http://www.w3.org/2000/svg" xmlns:xlink="http://www.w3.org/1999/xlink" viewBox="0 0 32 32"><defs><linearGradient x1="20" y1="26" x2="20" y2="13" id="l" xlink:href="#a" gradientUnits="userSpaceOnUse" gradientTransform="translate(-.448 -.623) scale(.66257)"/><linearGradient id="a"><stop offset="0" stop-color="#dcdcdc"/><stop offset="1" stop-color="#fff"/></linearGradient><linearGradient x1="24" y1="5" x2="24" y2="43" id="k" xlink:href="#b" gradientUnits="userSpaceOnUse" gradientTransform="translate(-.216 -.216) scale(.67568)"/><linearGradient id="b"><stop offset="0" stop-color="#fff"/><stop offset=".063" stop-color="#fff" stop-opacity=".235"/><stop offset=".951" stop-color="#fff" stop-opacity=".157"/><stop offset="1" stop-color="#fff" stop-opacity=".392"/></linearGradient><radialGradient cx="7.118" cy="9.957" r="12.672" fx="7.118" fy="9.957" id="j" xlink:href="#c" gradientUnits="userSpaceOnUse" gradientTransform="matrix(0 6.32786 -7.7686 0 93.928 -55.23)"/><linearGradient id="c"><stop offset="0" stop-color="#505050"/><stop offset=".262" stop-color="#2b2b2b"/><stop offset=".705" stop-color="#0a0a0a"/><stop offset="1"/></linearGradient><radialGradient cx="4.993" cy="43.5" r="2.5" fx="4.993" fy="43.5" id="g" xlink:href="#d" gradientUnits="userSpaceOnUse" gradientTransform="matrix(2.00378 0 0 1.4 27.988 -17.4)"/><linearGradient id="d"><stop offset="0" stop-color="#181818"/><stop offset="1" stop-color="#181818" stop-opacity="0"/></linearGradient><radialGradient cx="4.993" cy="43.5" r="2.5" fx="4.993" fy="43.5" id="h" xlink:href="#e" gradientUnits="userSpaceOnUse" gradientTransform="matrix(2.00378 0 0 1.4 -20.012 -104.4)"/><linearGradient id="e"><stop offset="0" stop-color="#181818"/><stop offset="1" stop-color="#181818" stop-opacity="0"/></linearGradient><linearGradient x1="25.058" y1="47.028" x2="25.058" y2="39.999" id="i" xlink:href="#f" gradientUnits="userSpaceOnUse"/><linearGradient id="f"><stop offset="0" stop-color="#181818" stop-opacity="0"/><stop offset=".5" stop-color="#181818"/><stop offset="1" stop-color="#181818" stop-opacity="0"/></linearGradient></defs><g opacity=".4"><path fill="url(#g)" d="M38 40h5v7h-5z" transform="matrix(.73684 0 0 .42857 -1.684 10.857)"/><path transform="matrix(-.73684 0 0 -.42857 -1.684 10.857)" fill="url(#h)" d="M-10-47h5v7h-5z"/><path fill="url(#i)" d="M10 40h28v7H10z" transform="matrix(.73684 0 0 .42857 -1.684 10.857)"/></g><rect y="2.5" x="2.5" ry="2.16" rx="2.16" height="27" width="27" color="#000" overflow="visible" opacity=".9" fill="url(#j)"/><rect y="3.5" x="3.5" ry="1.087" rx="1.087" height="25" width="25" opacity=".3" fill="none" stroke="url(#k)" stroke-linecap="round" stroke-linejoin="round"/><rect y="2.5" x="2.5" ry="2.16" rx="2.16" height="27" width="27" color="#000" overflow="visible" opacity=".7" fill="none" stroke="#000" stroke-linecap="round" stroke-linejoin="round"/><path style="line-height:125%;-inkscape-font-specification:'Open Sans Bold'" d="M7.813 7.03A.984.984 0 0 0 7.03 8v.406c-.325.13-.693.153-.968.375-.008.01.008.03 0 .04-.004.005-.026-.002-.03 0-1.05.847-1.095 2.33-.345 3.31a.984.984 0 0 0 .032.03c.13.17.31.186.46.317a.984.984 0 0 0-.97.968v1.16a.984.984 0 0 0 .594.906c.395.17.812.17 1.22.25V16a.984.984 0 0 0 .97.97h1a.984.984 0 0 0 .97-.97v-.313c.17-.065.374-.074.53-.156.01 0 .016-.02.03-.03.8-.41 1.4-1.19 1.374-2.18v-.03a2.2 2.2 0 0 0-.406-1.312.984.984 0 0 0-.03-.032c-.21-.273-.45-.416-.69-.592a.984.984 0 0 0 .47-.47l.47-1.06a.984.984 0 0 0-.535-1.313c-.384-.164-.81-.19-1.218-.28V8A.984.984 0 0 0 9 7.03H8a.984.984 0 0 0-.188 0zm.593 3.282c-.027-.012.03.034.094.126.054.077.058.132.063.156-.004.033-.024.218-.188.375-.175.16-.29.16-.25.15l-.03-.16.31-.658zm.47 2.594V13l-.282.625a.628.628 0 0 1-.094-.22.71.71 0 0 1 .188-.374c.145-.13.232-.13.187-.12zm2.937 2.125a.984.984 0 0 0-.782.97v1a.984.984 0 0 0 .97.97h5a.984.984 0 0 0 .97-.97v-1a.984.984 0 0 0-.97-.97h-5a.984.984 0 0 0-.18 0z" color="#000" font-weight="700" font-size="14.312" font-family="Open Sans" letter-spacing="0" word-spacing="0" overflow="visible" opacity=".15"/><path style="line-height:125%;-inkscape-font-specification:'Open Sans Bold'" d="M8 8v1c-.544.052-.92.212-1.344.563-.606.468-.633 1.385-.187 1.968.43.53.9.77 1.53 1v1.41c-.7-.05-1.18-.21-1.82-.5v1.16c.632.27 1.122.397 1.81.41v1h1v-1c.42-.037.69-.144 1.063-.343.517-.254.897-.78.873-1.344a1.347 1.347 0 0 0-.25-.78c-.433-.58-1.034-.8-1.687-1.063V10.1c.517.042.862.184 1.343.375l.47-1.063C10.19 9.145 9.66 9 8.993 8.97V8H8zm0 2.156v1.063c-.264-.12-.418-.3-.406-.63-.013-.318.14-.41.406-.44zm1 2.625c.262.13.463.27.47.6.014.34-.174.46-.47.5v-1.1zM12 16v1h5v-1h-5z" color="#000" font-weight="700" font-size="14.312" font-family="Open Sans" letter-spacing="0" word-spacing="0" overflow="visible" opacity=".3"/><path style="line-height:125%;-inkscape-font-specification:'Open Sans Bold'" d="M8 7v1c-.544.052-.92.212-1.344.563-.606.468-.633 1.385-.187 1.968.43.53.9.77 1.53 1v1.41c-.7-.05-1.18-.21-1.82-.5v1.16c.632.27 1.122.397 1.81.41v1h1v-1c.42-.037.69-.144 1.063-.343.517-.254.897-.78.873-1.344a1.347 1.347 0 0 0-.25-.78c-.433-.58-1.034-.8-1.687-1.063V9.1c.517.042.862.184 1.343.375l.47-1.065c-.616-.263-1.146-.41-1.815-.437V7H8zm0 2.156v1.063c-.264-.12-.418-.3-.406-.63-.013-.318.14-.41.406-.44zm1 2.625c.262.13.463.27.47.6.014.34-.174.46-.47.5v-1.1zM12 15v1h5v-1h-5z" color="#000" font-weight="700" font-size="14.312" font-family="Open Sans" letter-spacing="0" word-spacing="0" overflow="visible" fill="url(#l)"/></svg>
